svgs/light/square-7.svg

<svg xmlns="http://www.w3.org/2000/svg" viewBox="0 0 448 512"><!--! Font Awesome Pro 6.3.0 by @fontawesome - https://fontawesome.com License - https://fontawesome.com/license (Commercial License) Copyright 2023 Fonticons, Inc. --><path d="M303.9 128h-160c-8.844 0-16 7.156-16 16s7.156 16 16 16h132.4l-114.3 200.1c-4.375 7.688-1.688 17.44 5.969 21.84C170.6 383.3 173.3 384 176 384c5.531 0 10.94-2.906 13.91-8.062l127.9-224c2.812-4.969 2.781-11.03-.0625-15.97C314.9 131 309.6 128 303.9 128zM384 32H64C28.65 32 0 60.65 0 96v320c0 35.35 28.65 64 64 64h320c35.35 0 64-28.65 64-64V96C448 60.65 419.3 32 384 32zM416 416c0 17.64-14.36 32-32 32H64c-17.64 0-32-14.36-32-32V96c0-17.64 14.36-32 32-32h320c17.64 0 32 14.36 32 32V416z"/></svg>

<svg xmlns="http://www.w3.org/2000/svg" viewBox="0 0 448 512"><!-- Font Awesome Pro 6.0.0-alpha2 by @fontawesome - https://fontawesome.com License - https://fontawesome.com/license (Commercial License) --><path d="M303.906 128H143.906C135.062 128 127.906 135.156 127.906 144S135.062 160 143.906 160H276.344L162.094 360.062C157.719 367.75 160.406 377.5 168.062 381.906C170.562 383.312 173.281 384 176 384C181.531 384 186.938 381.094 189.906 375.938L317.812 151.938C320.625 146.969 320.594 140.906 317.75 135.969C314.875 131.031 309.594 128 303.906 128ZM384 32H64C28.654 32 0 60.654 0 96V416C0 451.346 28.654 480 64 480H384C419.346 480 448 451.346 448 416V96C448 60.654 419.346 32 384 32ZM416 416C416 433.645 401.645 448 384 448H64C46.355 448 32 433.645 32 416V96C32 78.355 46.355 64 64 64H384C401.645 64 416 78.355 416 96V416Z"/></svg>
